X:9512
T:Les forgerons aiment le vin
M:3/8
L:1/16
K:CMixo
e3dc2|B2c4|d3ef2|gagfed|\
e3dc2|B2c4|d3ef2|g6:|
|:g3ag2|g2f4|defdgf|e2d4|\
g3ag2|g2f4|dfe2d2|c3:|
